static/img/icon-merge.svg

<svg width="24" height="24" viewBox="0 0 24 24" fill="none" xmlns="http://www.w3.org/2000/svg">
<path d="M8.85721 5.01273C10.5122 3.33017 12.1932 1.6725 13.8583 0C13.8599 1.12241 13.8578 2.24429 13.8599 3.36671C14.8859 3.33759 15.9279 3.42336 16.9089 3.74208C18.0197 4.0931 19.0299 4.79937 19.6715 5.77936C20.1502 6.50046 20.4218 7.34438 20.5245 8.19996C20.5986 8.76434 20.5806 9.33508 20.5827 9.90316C20.5832 12.3905 20.5822 14.8783 20.5832 17.3656C21.263 17.7473 21.8094 18.3631 22.0932 19.0905C22.3981 19.8524 22.4071 20.7265 22.1223 21.4958C21.8322 22.2915 21.2313 22.9671 20.4758 23.3499C19.7372 23.73 18.8557 23.819 18.0552 23.5998C17.2557 23.3848 16.5457 22.8633 16.0973 22.1687C15.6425 21.4741 15.462 20.609 15.597 19.7904C15.7473 18.8173 16.353 17.9348 17.1943 17.4276C17.1943 14.6888 17.1938 11.95 17.1943 9.21172C17.1943 8.64469 17.1286 8.03689 16.7829 7.56622C16.4944 7.17708 16.0179 6.99125 15.5573 6.90124C14.9982 6.79059 14.4264 6.78106 13.8588 6.7763C13.8588 7.90559 13.8594 9.03435 13.8588 10.1636C12.3229 8.62827 10.7875 7.0929 9.25164 5.557C9.11875 5.42199 8.97951 5.29334 8.85615 5.14933L8.82597 5.18533C8.82544 5.1165 8.82544 5.04768 8.82544 4.97885L8.85721 5.01273ZM18.5957 18.6707C18.2018 18.7506 17.8439 18.9793 17.5988 19.297C17.0905 19.9302 17.1429 20.9272 17.7184 21.5005C18.2659 22.0962 19.2527 22.1978 19.9071 21.7203C20.5673 21.2803 20.8273 20.3501 20.4848 19.6327C20.1787 18.9238 19.3507 18.4986 18.5957 18.6707Z" fill="black"/>
<path d="M3.92279 2.31029C4.57029 1.99687 5.31892 1.90051 6.02466 2.03657C6.86117 2.19223 7.62621 2.68302 8.12548 3.37076C8.67451 4.1178 8.8974 5.09726 8.71315 6.00737C8.53526 6.95983 7.91952 7.81223 7.08248 8.29719C7.08142 11.4246 7.08142 14.552 7.08248 17.6799C7.72681 18.0553 8.2446 18.644 8.52467 19.3355C8.84181 20.1053 8.85875 20.9932 8.56968 21.7746C8.2806 22.5709 7.67969 23.2475 6.92471 23.6313C6.16179 24.0247 5.24638 24.1068 4.42417 23.8606C3.59347 23.616 2.86867 23.0378 2.44194 22.2845C2.03692 21.5803 1.90403 20.7274 2.06922 19.9327C2.25558 18.995 2.86655 18.1585 3.69248 17.6804C3.69407 14.5525 3.69407 11.4241 3.69248 8.29613C3.06192 7.92817 2.55207 7.35691 2.26829 6.68346C1.92892 5.88983 1.91039 4.9649 2.22117 4.15963C2.52507 3.35647 3.14822 2.68037 3.92279 2.31029ZM5.04361 3.70537C4.67247 3.78055 4.33204 3.98703 4.08903 4.27716C3.55694 4.88549 3.56594 5.87766 4.10968 6.47539C4.6137 7.07578 5.54922 7.23832 6.22426 6.83753C6.91782 6.45792 7.26249 5.56105 6.99089 4.81613C6.73623 4.02779 5.85312 3.51847 5.04361 3.70537ZM5.04308 18.9532C4.64865 19.0332 4.28969 19.2624 4.04403 19.5806C3.53629 20.2138 3.58924 21.2108 4.16527 21.7836C4.71324 22.3792 5.70064 22.4803 6.35503 22.0023C7.01365 21.5618 7.27308 20.6331 6.93212 19.9168C6.6261 19.2074 5.79859 18.7817 5.04308 18.9532Z" fill="black"/>
</svg>

<svg xmlns="http://www.w3.org/2000/svg" fill="none" viewBox="0 0 24 24"><path fill="#000" d="M8.857 5.013C10.512 3.33 12.193 1.673 13.858 0c.002 1.122 0 2.244.002 3.367 1.026-.03 2.068.056 3.049.375 1.11.351 2.12 1.057 2.763 2.037.478.721.75 1.565.852 2.421.075.564.057 1.135.059 1.703v7.463c.68.381 1.226.997 1.51 1.724a3.381 3.381 0 0 1-1.617 4.26 3.39 3.39 0 0 1-2.42.25 3.41 3.41 0 0 1-1.959-1.431 3.38 3.38 0 0 1-.5-2.379 3.41 3.41 0 0 1 1.597-2.362V9.212c0-.567-.065-1.175-.411-1.646-.289-.389-.765-.575-1.226-.665-.559-.11-1.13-.12-1.698-.125v3.388L9.252 5.557c-.133-.135-.272-.264-.396-.408l-.03.036V4.98l.031.034Zm9.739 13.658a1.7 1.7 0 0 0-.997.626c-.509.633-.456 1.63.12 2.203.547.596 1.534.698 2.188.22.66-.44.92-1.37.578-2.087-.306-.71-1.134-1.134-1.89-.962ZM3.923 2.31a3.39 3.39 0 0 1 2.102-.273 3.395 3.395 0 0 1 2.1 1.334c.55.747.772 1.726.588 2.636a3.411 3.411 0 0 1-1.63 2.29c-.002 3.128-.002 6.255 0 9.383a3.385 3.385 0 0 1-2.658 6.18 3.413 3.413 0 0 1-1.983-1.575 3.382 3.382 0 0 1-.373-2.352 3.41 3.41 0 0 1 1.623-2.253c.002-3.127.002-6.256 0-9.384A3.388 3.388 0 0 1 2.221 4.16a3.411 3.411 0 0 1 1.702-1.85Zm1.12 1.395a1.696 1.696 0 0 0-.933 2.77c.504.6 1.44.763 2.114.363.694-.38 1.038-1.277.767-2.022-.255-.788-1.138-1.298-1.947-1.11Zm0 15.248c-.394.08-.753.31-.999.628-.508.633-.455 1.63.121 2.203.548.595 1.536.696 2.19.218.659-.44.918-1.369.577-2.085-.306-.71-1.133-1.135-1.889-.964Z"/></svg>
